X: 1
T: Kane's
M: 4/4
L: 1/8
R: reel
K: Dmix
|: eAAA eAAA | GEDE G3G | A2AB cBcd | efge dgfg |
eAAA eAAA | GEDE G3G | A2AB cBcd | efge dcBc ||
dggg dggg | eaaa eaaa | dggg gefg | afge dcBc |
dggg dggg | eaaa eaaa | dggg gefg | afge d3d :|
